src/lib/packages/icons/src/assets/filled/grid-square-circle.svg

<svg xmlns="http://www.w3.org/2000/svg" width="24" height="24" fill="none"><path fill="currentColor" d="M14 17a3 3 0 1 1 6 0 3 3 0 0 1-6 0Zm4.5-13h-3c-1 0-1.5.5-1.5 1.5v3c0 1 .5 1.5 1.5 1.5h3c1 0 1.5-.5 1.5-1.5v-3c0-1-.5-1.5-1.5-1.5Zm-10 0h-3C4.5 4 4 4.5 4 5.5v3c0 1 .5 1.5 1.5 1.5h3c1 0 1.5-.5 1.5-1.5v-3c0-1-.5-1.5-1.5-1.5Zm0 10h-3c-1 0-1.5.5-1.5 1.5v3c0 1 .5 1.5 1.5 1.5h3c1 0 1.5-.5 1.5-1.5v-3c0-1-.5-1.5-1.5-1.5Z"/></svg>

<svg width="24" height="24" viewBox="0 0 24 24" fill="none" xmlns="http://www.w3.org/2000/svg">
<path d="M14 17C14 15.343 15.343 14 17 14C18.657 14 20 15.343 20 17C20 18.657 18.657 20 17 20C15.343 20 14 18.657 14 17ZM18.5 4H15.5C14.5 4 14 4.5 14 5.5V8.5C14 9.5 14.5 10 15.5 10H18.5C19.5 10 20 9.5 20 8.5V5.5C20 4.5 19.5 4 18.5 4ZM8.5 4H5.5C4.5 4 4 4.5 4 5.5V8.5C4 9.5 4.5 10 5.5 10H8.5C9.5 10 10 9.5 10 8.5V5.5C10 4.5 9.5 4 8.5 4ZM8.5 14H5.5C4.5 14 4 14.5 4 15.5V18.5C4 19.5 4.5 20 5.5 20H8.5C9.5 20 10 19.5 10 18.5V15.5C10 14.5 9.5 14 8.5 14Z" fill="currentColor"/>
</svg>
